X: 30485
T: Old Wooden Bridge
R: reel
M: 4/4
K: Dmajor
A|"D" D2DF A2FA|"D" BAFB AFED|"Em" E2BE dEBE|"G" BAFB "A" AFED|
"D" D2DF A2FA|"D" BAFB AFAB|"Bm" dfef d2dB|"A" AFGE "D" FDD:|
A|"D" dfaf g2fg|"D" ~a2ag fddf|"D" agfg agfe|"Bm" dfaf "A" geeg|
"D" fgaf g2fg|"D" ~a2ag fddB|"Bm" dfef d2dB|"A" AFGE "D" FDD:|

